X:21
T:The Tobacco Box Doublings
S:Ashworth's Instructor, p. 35
M:2/4
%%MIDI program 72
%%MIDI transpose 8
L:1/8
K:G
DGGE|FAFD|ABAB|c2B2|GBde|dBGE|A>B c/A/G/F/|[1 G2 G2:|[2 G2 GB|
|:d>e dB|g2e2|dd e/d/c/B/|B2A2|DGGG|GBGE|A>B c/A/G/F/|[1 G2GB:|[2 G2 G2|]

